X: 34483
T: Riding On A Load Of Hay
R: slide
M: 12/8
K: Gmajor
d2g gdB ~G2B AGE|EAA ABc ~e2d~B2c|
d2g gdB~G2B AGE|1 EAA ABA~G3GAB:|2 EAA ABA~G3G2||
|:B|~A3 ABc ~e2d~B2G|~A3ABc ~e2d~B2c|
d2g gdB~G2B AGE|1 EAA ABA~G3 G2:|2 EAA ABA~G3GAB||

